Cloud/dashboard/static/tracks/paul_ricard.svg

<?xml version="1.0" encoding="UTF-8"?>
<!-- Uploaded to: SVG Find, www.svgfind.com, Generator: SVG Find Mixer Tools -->
<svg fill="#000000" width="800px" height="800px" version="1.1" viewBox="144 144 512 512" xmlns="http://www.w3.org/2000/svg">
 <path d="m583.61 493.95-89.984-68.312c-5.2148-3.957-9.7031-8.7344-13.336-14.188l-11.609-17.445c-1.4297-2.1445-2.4648-4.5039-3.0781-7.0234-1.2461-5.1211-5.8008-8.6992-11.078-8.6992-2.0195 0-4.0117 0.54297-5.7656 1.5742l-4.4102 2.5977c-1.6289 0.94531-3.7617 0.82812-5.2539-0.30859l-182.3-138.39c-9.3125-7.0703-11.809-18.113-14.215-28.797-2.2344-9.8906-4.3438-19.238-11.746-24.859-3.6914-2.793-7.5312-4.2188-11.414-4.2188-11.215 0-19.031 11.656-23.941 20.426-1.2734 2.2812-1.3438 5.043-0.18359 7.3867 1.1641 2.3516 3.4062 3.9727 6.0039 4.3477l10.637 1.5117c2.5547 0.36328 4.793 1.8359 6.1367 4.043 1.3438 2.2109 1.6289 4.875 0.77734 7.3125l-1.3711 3.9062c-1.9336 5.5469-0.58594 11.594 3.5117 15.793 8.4297 8.6367 26.609 27.246 34.473 35.176 2.2969 2.3164 4.3906 4.8594 6.2188 7.5586l27.594 40.73c4.168 6.1602 11.102 9.832 18.539 9.832 4.0586 0 8.0508-1.1172 11.539-3.2148 4.9414-2.9805 11.809-1.5039 15.109 3.1797l76.031 107.96-4.0977 2.8945-25.254-35.734-6.7422-9.543 1.1523 16.352 4.8828 1.0195 24.742 35.008 8.2539-5.832 39.004 55.383c1.9922 2.8281 5.1133 4.4492 8.5586 4.4492 4.6523 0 8.6992-2.9766 10.07-7.418 0.62109-2.0078 1.1719-4.2461 1.8164-6.8711 0.39063-1.5938 0.82031-3.3398 1.3242-5.2656 1.1094-4.2266 4.2539-6.75 8.418-6.75 2.7969 0 5.7969 1.1602 8.6836 3.3516 3.9727 3.0156 5.4961 6.4688 7.4258 10.832 2.4609 5.5742 5.5234 12.516 14.461 19.301 9.7148 7.375 20.66 10.809 34.449 10.809 4.9648 0 9.625-0.4375 13.734-0.82031 3.1836-0.29688 6.1875-0.57812 8.6289-0.57812 3.1953 0 4.5117 0.48828 5.0547 0.90234 3.625 2.7539 1.9297 8.8125-5.0469 18.008-1.9922 2.6172-9.3633 7.9844-15.863 12.719-4.9141 3.5742-9.9961 7.2734-14.016 10.625-4.5273 3.7734-6.7695 7.9922-6.6641 12.547 0.1875 8.1992 8.1797 15.375 16.789 21.906 4.3672 3.3164 9.082 5 14.027 5 11.43-0.003907 21.613-9.4844 23.961-18.34 0.83203-3.1406 2.8867-10.176 5.2969-18.426 4.125-14.113 9.2578-31.684 11.199-39.801 3.4375-14.375-4.6562-31.086-21.137-43.598zm11.219 41.23c-1.8828 7.8672-6.9766 25.301-11.07 39.312-2.4414 8.3594-4.5273 15.492-5.3672 18.676-1.1602 4.3828-7.2305 10.754-14.102 10.754-2.668 0-5.3086-0.98047-7.8594-2.9219-8.4023-6.3711-12.691-11.094-12.762-14.02-0.03125-1.2891 0.97656-2.793 2.9961-4.4766 3.7656-3.1367 8.707-6.7344 13.488-10.215 8.0938-5.8945 15.086-10.984 17.984-14.801 13.785-18.168 9.2891-27.586 3.0938-32.297-3.5117-2.6641-8.0859-2.9727-11.219-2.9727-2.9141 0-6.1523 0.30469-9.5781 0.62109-3.8906 0.36328-8.3008 0.77734-12.789 0.77734-11.449 0-20.438-2.7773-28.285-8.7383-6.8398-5.1914-9.0078-10.098-11.301-15.293-2.2188-5.0273-4.5156-10.23-10.59-14.84-4.668-3.543-9.8047-5.4219-14.848-5.4219-8.8203 0-15.996 5.6406-18.281 14.363-0.51953 1.9883-0.96094 3.7773-1.3633 5.418-0.40625 1.6523-0.77344 3.0977-1.1445 4.4609-0.38281 1.2305-1.1523 1.8047-2.0859 0.48438l-116.95-166.06c-4.0273-5.7148-10.609-9.1289-17.609-9.1289-3.9062 0-7.7422 1.0703-11.102 3.0938-5.3906 3.25-12.863 1.5742-16.371-3.6016l-27.598-40.734c-2.1797-3.2148-4.6758-6.25-7.4141-9.0156-7.8555-7.9141-26-26.496-34.418-35.117-1.375-1.4102-1.8281-3.4414-1.1797-5.3008l1.3711-3.9062c1.8594-5.332 1.2422-11.156-1.6914-15.98-2.9336-4.8203-7.8242-8.0391-13.41-8.8359l-7.3242-1.0391c4.9805-8.1953 9.4727-12.344 13.375-12.344 1.6094 0 3.3711 0.72266 5.2539 2.1523 4.4375 3.3672 6.0703 10.605 7.9609 18.977 2.5508 11.297 5.7227 25.355 18 34.676l182.3 138.39c4.6992 3.5625 11.504 3.9531 16.586 0.97266l4.4102-2.5977c0.62891-0.34766 1.5469-0.16016 1.7617 0.74609 0.89453 3.6758 2.4062 7.1289 4.4961 10.266l11.609 17.445c4.2656 6.4062 9.5352 12.012 15.664 16.664l89.984 68.312c13.199 10.012 19.855 22.699 17.371 33.09z"/>
</svg>

<?xml version="1.0" encoding="utf-8"?>
<svg fill="#000000" width="800px" height="800px" version="1.1" viewBox="144 144 512 512" xmlns="http://www.w3.org/2000/svg">
  <path d="M 583.61 493.95 L 493.626 425.638 C 488.411 421.681 483.923 416.904 480.29 411.45 L 468.681 394.005 C 467.251 391.861 466.216 389.501 465.603 386.982 C 464.357 381.861 459.802 378.282 454.525 378.282 C 452.505 378.282 450.513 378.825 448.759 379.857 L 444.349 382.454 C 442.72 383.4 440.587 383.282 439.095 382.146 L 256.795 243.756 C 247.483 236.685 244.986 225.643 242.58 214.959 C 240.346 205.068 238.236 195.721 230.834 190.1 C 227.143 187.307 223.303 185.881 219.42 185.881 C 208.205 185.881 200.389 197.537 195.479 206.307 C 194.206 208.588 194.135 211.35 195.296 213.694 C 196.46 216.045 198.702 217.666 201.299 218.041 L 211.936 219.553 C 214.491 219.916 216.729 221.389 218.073 223.596 C 219.417 225.807 219.702 228.471 218.851 230.909 L 217.479 234.815 C 215.546 240.362 216.893 246.409 220.991 250.608 C 229.421 259.244 247.6 277.854 255.464 285.784 C 257.761 288.1 259.855 290.643 261.683 293.342 L 289.277 334.072 C 293.445 340.233 300.379 343.904 307.816 343.904 C 311.875 343.904 315.867 342.787 319.355 340.69 C 324.296 337.709 331.164 339.186 334.464 343.869 L 452.436 511.377 C 454.428 514.205 457.549 515.826 460.995 515.826 C 465.647 515.826 469.694 512.85 471.065 508.408 C 471.686 506.401 472.237 504.162 472.881 501.537 C 473.272 499.943 473.701 498.197 474.205 496.272 C 475.315 492.045 478.459 489.522 482.623 489.522 C 485.42 489.522 488.42 490.682 491.307 492.873 C 495.28 495.889 496.803 499.342 498.733 503.705 C 501.194 509.279 504.256 516.221 513.194 523.006 C 522.909 530.381 533.854 533.815 547.643 533.815 C 552.607 533.815 557.268 533.378 561.377 532.995 C 564.56 532.698 567.564 532.417 570.006 532.417 C 573.201 532.417 574.517 532.905 575.06 533.319 C 578.685 536.073 576.99 542.132 570.013 551.327 C 568.021 553.944 560.65 559.312 554.15 564.046 C 549.236 567.62 544.154 571.32 540.134 574.671 C 535.607 578.445 533.365 582.663 533.47 587.218 C 533.658 595.417 541.65 602.593 550.259 609.124 C 554.627 612.441 559.341 614.124 564.286 614.124 C 575.716 614.12 585.899 604.64 588.247 595.784 C 589.079 592.644 591.134 585.608 593.544 577.358 C 597.669 563.245 602.802 545.674 604.743 537.557 C 608.181 523.182 600.087 506.471 583.606 493.959 L 583.61 493.95 Z M 594.829 535.18 C 592.946 543.047 587.852 560.481 583.759 574.492 C 581.318 582.851 579.232 589.984 578.392 593.168 C 577.232 597.551 571.161 603.922 564.29 603.922 C 561.622 603.922 558.981 602.942 556.43 601 C 548.028 594.629 543.739 589.906 543.668 586.98 C 543.637 585.691 544.645 584.187 546.664 582.504 C 550.43 579.367 555.371 575.769 560.152 572.289 C 568.246 566.394 575.238 561.305 578.136 557.487 C 591.921 539.319 587.426 529.901 581.23 525.19 C 577.719 522.526 573.144 522.218 570.011 522.218 C 567.097 522.218 563.859 522.522 560.433 522.839 C 556.543 523.202 552.132 523.616 547.644 523.616 C 536.195 523.616 527.206 520.839 519.359 514.878 C 512.519 509.687 510.351 504.78 508.058 499.585 C 505.839 494.558 503.543 489.355 497.468 484.745 C 492.8 481.202 487.664 479.323 482.62 479.323 C 473.8 479.323 466.624 484.964 464.339 493.686 C 463.82 495.674 463.378 497.463 462.976 499.104 C 462.57 500.756 462.202 502.202 461.831 503.565 C 461.449 504.795 460.679 505.37 459.745 504.049 L 342.795 337.989 C 338.768 332.275 332.186 328.86 325.186 328.86 C 321.28 328.86 317.444 329.931 314.084 331.954 C 308.694 335.204 301.221 333.528 297.713 328.353 L 270.115 287.619 C 267.936 284.404 265.44 281.369 262.701 278.603 C 254.846 270.689 236.701 252.107 228.283 243.486 C 226.908 242.076 226.455 240.045 227.104 238.185 L 228.475 234.279 C 230.334 228.947 229.717 223.123 226.783 218.299 C 223.85 213.479 218.959 210.26 213.373 209.463 L 206.049 208.424 C 211.03 200.229 215.522 196.08 219.424 196.08 C 221.034 196.08 222.795 196.803 224.678 198.232 C 229.116 201.6 230.748 208.837 232.639 217.209 C 235.19 228.506 238.362 242.564 250.639 251.885 L 432.939 390.275 C 437.638 393.838 444.443 394.228 449.525 391.248 L 453.935 388.65 C 454.564 388.303 455.482 388.49 455.697 389.396 C 456.591 393.072 458.103 396.525 460.193 399.662 L 471.802 417.107 C 476.068 423.514 481.337 429.119 487.466 433.771 L 577.45 502.083 C 590.649 512.095 597.305 524.782 594.821 535.173 L 594.829 535.18 Z"/>
</svg>
